X:1
T:Der evangelische Kirchenchor
T:Wir liegen hier zu deinen Füßen
T:Max Reger
T:Text: Benjamin Schmolck
T:Wir liegen hier zu deinen Füßen
T:Nr. 26 aus Der evangelische Kirchenchor, WoO VI/17 
T:CPDL - Creative Commons Attribution Non Commercial 3.0
T:CPDL - Creative Commons Attribution Non Commercial 3.0
C:Max Reger
Z:Benjamin Schmolck
Z:CPDL - Creative Commons Attribution Non Commercial 3.0
%%score [ ( 1 2 ) ( 3 4 ) ]
L:1/8
Q:1/4=88
M:4/4
K:A
V:1 treble nm="Sopran\nAlt"
V:2 treble 
V:3 bass nm="Tenor\nBass"
V:4 bass 
V:1
"^Nicht zu langsam" z2!p!!<(! A2 G2 A2!<)! | B2 c2 d2 c2 | B4 A2!mf! B2 |!<(! c2 B2!<)! A2 G2 | %4
w: 1.~Wir lie- gen|hier zu dei- nen|Fü- ßen, ach|Herr von gro- ßer|
w: 2.~Ach, lass die|wohl- ver- dien- te|Stra- fe nicht|ü- ber uns- re|
w: 3.~So wol- len|wir dir Op- fer|brin- gen und|dei- ne sein mit|
!>(! F2 F2 E4!>)! | z2!p!!<(! A2 G2 A2!<)! | B2 c2 d2 c2 | B4 A2!mf! B2 | c2 B2 A2 G2 | %9
w: Güt' und Treu',|und füh- len|lei- der im Ge-|wis- sen, wie|sehr dein Zorn ent-|
w: Häup- ter gehn,|dass wir nicht|als ver- lor- ne|Scha- fe von|dei- ner Huld ver-|
w: Leib und Seel'.|Es soll dein|Lob gen Him- mel|drin- gen, und|dein er- lös- tes|
!>(! F2 F2 E4!>)! | z2!mp!!<(! E2 B2 B2 | c2 A2 d2 c2!<)! |!f! B2!p!!<(! e2 d2 c2!<)! | %13
w: bren- net sei.|Das Maß der|Sün- den ist er-|füllt, ach weh' uns,|
w: las- sen stehn.|Ach, samm- le|uns in dei- nen|Schoß und mach uns|
w: Is- ra- el|wird in der|Hüt- te Ja- kobs|schrei'n: Der Herr soll|
[Q:1/4=80]"^poco rit."!>(! B2 A2 A2 G2!>)! | !fermata!A2 |] %15
w: wenn du stra- fen|willst!|
w: al- ler Pla- gen|los.|
w: mein Gott e- wig|sein.|
V:2
 x2 E2 ^E2 F2 | F2 F2 FG =A2 | (A2 G2) E2 E2 | E2 =D2 EF E2 | E2 ^D2 B,4 | x2 E2 ^E2 F2 | %6
 F2 F2 FG =A2 | (A2!>(! G2) E2 E2 | E2 =D2!>)! EF E2 | E2 ^D2 B,4 | x2 C2 B,2 E2 | E2 F2 G2 ^A2 | %12
 B2 G2 F2 E2 | D2 E2 F2 E2 | E2 |] %15
V:3
 z2 C2 C2 C2 | B,2 ^A,2 B,2 E2 | (F2 ED) C2 G,2 | A,2 F,2 C2 B,2 | C2 B,A, G,4 | z2 C2 C2 C2 | %6
 B,2 ^A,2 B,2 E2 | (F2 ED) C2 G,2 | A,2 F,2 C2 B,2 | C2 B,A, G,4 | z2 G,2 F,2 G,2 | C2 D2 DE FE | %12
 D2 C2 A,2 A,2 | F,2 C2 B,2 CD | C2 |] %15
V:4
 x2 A,,2 C,2 F,2 | D,2 C,2 B,,2 C,2 | (D,2 E,2) A,,2 E,2 | A,,2 B,,2 C,^D, E,2 | A,,2 B,,2 E,4 | %5
 x2 A,,2 C,2 F,2 | D,2 C,2 B,,2 C,2 | (D,2 E,2) A,,2 E,2 | A,,2 B,,2 C,^D, E,2 | A,,2 B,,2 E,4 | %10
 x2 C,2 ^D,2 E,2 | A,2 D,2 B,,2 F,2 | B,2 C,2 D,2 A,,2 | B,,2 C,2 D,2 E,2 | !fermata!A,,2 |] %15

